X:18
T:Humors of Ballinthra
S:Bernie Waugh
R:Jig
M:6/8
L:1/8
K:A
|:e2d|\
"A"~cAA EAA|"D"FAA "A"EAA|~cAA EAA|"E"G2A Bed|
"A"~cAA EAA|"D"FAA "A"EAA|edc "E"~BAG|"A"A2A:|
|:ABc|\
"G"dB=G GBc|"(Em)"dB=G GAB|"D"AFD DEF|"A"ECA, A,2A|
"A"CA,C ECE|ABc "D"~dcB|"A"edc "E"BAG|"A"A2A:|

